svgs/solid/circle-down.svg

<svg xmlns="http://www.w3.org/2000/svg" viewBox="0 0 512 512"><!--! Font Awesome Pro 6.0.0-alpha3 by @fontawesome - https://fontawesome.com License - https://fontawesome.com/license (Commercial License) --><path d="M256 512c141.4 0 256-114.6 256-256s-114.6-256-256-256C114.6 0 0 114.6 0 256S114.6 512 256 512zM129.2 265.9C131.7 259.9 137.5 256 144 256h64V160c0-17.67 14.33-32 32-32h32c17.67 0 32 14.33 32 32v96h64c6.469 0 12.31 3.891 14.78 9.875c2.484 5.984 1.109 12.86-3.469 17.44l-112 112c-6.248 6.248-16.38 6.248-22.62 0l-112-112C128.1 278.7 126.7 271.9 129.2 265.9z"/></svg>

<svg xmlns="http://www.w3.org/2000/svg" viewBox="0 0 512 512"><!-- Font Awesome Pro 6.0.0-alpha2 by @fontawesome - https://fontawesome.com License - https://fontawesome.com/license (Commercial License) --><path d="M256 496C388.58 496 496 388.58 496 256S388.58 16 256 16C123.418 16 16 123.42 16 256S123.418 496 256 496ZM129.219 265.875C131.688 259.891 137.531 256 144 256H208V160C208 142.327 222.327 128 240 128H272C289.673 128 304 142.327 304 160V256H368C374.469 256 380.312 259.891 382.781 265.875C385.266 271.859 383.891 278.734 379.313 283.313L267.313 395.313C261.065 401.56 250.935 401.56 244.688 395.313L132.688 283.313C128.109 278.734 126.734 271.859 129.219 265.875Z"/></svg>
